resources/images/TraitorIconWhite.svg

<svg xmlns="http://www.w3.org/2000/svg" width="512" height="512" shape-rendering="geometricPrecision" image-rendering="optimizeQuality" fill-rule="evenodd" xmlns:v="https://vecta.io/nano"><path fill="#fefffe" d="M57.5 16.5c22.1232-.3748 30.9565 10.2919 26.5 32-.7804 3.0117-1.9471 5.8451-3.5 8.5 30.936 17.9338 56.436 41.7672 76.5 71.5 25.331-18.832 53.831-28.166 85.5-28v19c-27.006-.275-51.34 7.558-73 23.5 12.268 1.418 24.601 2.418 37 3l49 53.5 49-53.5c12.399-.582 24.732-1.582 37-3-21.66-15.942-45.994-23.775-73-23.5v-19c31.669-.166 60.169 9.168 85.5 28 20.064-29.7328 45.564-53.5662 76.5-71.5-7.571-12.8387-6.571-24.8387 3-36 7.553-4.5553 15.553-5.5553 24-3 20.579 7.4111 32.579 21.9111 36 43.5-2.633 18.7657-13.299 25.9324-32 21.5-3.012-.7804-5.845-1.9471-8.5-3.5-17.934 30.936-41.767 56.436-71.5 76.5 19.386 25.491 29.22 54.324 29.5 86.5-6.076.976-12.242 1.31-18.5 1-.625-28.043-9.125-53.376-25.5-76-1.523 12.57-2.523 25.237-3 38l-57.5 52c61.377 70.136 119.877 142.469 175.5 217 4.572 6.183 8.572 12.516 12 19L409.5 430 255 302.5c-76.722 67.07-156.0557 130.737-238 191 3.4282-6.484 7.4282-12.817 12-19C84.5044 400.043 143.004 327.876 204.5 258c-18.738-17.727-37.904-35.227-57.5-52.5-.477-12.763-1.477-25.43-3-38-16.375 22.624-24.875 47.957-25.5 76-6.258.31-12.424-.024-18.5-1 .28-32.176 10.114-61.009 29.5-86.5-29.7328-20.064-53.5662-45.564-71.5-76.5-11.3276 6.7353-22.4942 6.5686-33.5-.5-6.496-7.8234-8.3294-16.6567-5.5-26.5 6.9173-18.42 19.7506-30.42 38.5-36z"/></svg>

<?xml version="1.0" encoding="UTF-8"?>
<!DOCTYPE svg PUBLIC "-//W3C//DTD SVG 1.1//EN" "http://www.w3.org/Graphics/SVG/1.1/DTD/svg11.dtd">
<svg xmlns="http://www.w3.org/2000/svg" version="1.1" width="512px" height="512px" style="shape-rendering:geometricPrecision; text-rendering:geometricPrecision; image-rendering:optimizeQuality; fill-rule:evenodd; clip-rule:evenodd" xmlns:xlink="http://www.w3.org/1999/xlink">
<g><path style="opacity:1" fill="#fefffe" d="M 57.5,16.5 C 79.6232,16.1252 88.4565,26.7919 84,48.5C 83.2196,51.5117 82.0529,54.3451 80.5,57C 111.436,74.9338 136.936,98.7672 157,128.5C 182.331,109.668 210.831,100.334 242.5,100.5C 242.5,106.833 242.5,113.167 242.5,119.5C 215.494,119.225 191.16,127.058 169.5,143C 181.768,144.418 194.101,145.418 206.5,146C 223.046,163.709 239.379,181.543 255.5,199.5C 271.621,181.543 287.954,163.709 304.5,146C 316.899,145.418 329.232,144.418 341.5,143C 319.84,127.058 295.506,119.225 268.5,119.5C 268.5,113.167 268.5,106.833 268.5,100.5C 300.169,100.334 328.669,109.668 354,128.5C 374.064,98.7672 399.564,74.9338 430.5,57C 422.929,44.1613 423.929,32.1613 433.5,21C 441.053,16.4447 449.053,15.4447 457.5,18C 478.079,25.4111 490.079,39.9111 493.5,61.5C 490.867,80.2657 480.201,87.4324 461.5,83C 458.488,82.2196 455.655,81.0529 453,79.5C 435.066,110.436 411.233,135.936 381.5,156C 400.886,181.491 410.72,210.324 411,242.5C 404.924,243.476 398.758,243.81 392.5,243.5C 391.875,215.457 383.375,190.124 367,167.5C 365.477,180.07 364.477,192.737 364,205.5C 344.658,222.677 325.492,240.01 306.5,257.5C 367.877,327.636 426.377,399.969 482,474.5C 486.572,480.683 490.572,487.016 494,493.5C 465.55,472.718 437.384,451.551 409.5,430C 357.697,387.864 306.197,345.364 255,302.5C 178.278,369.57 98.9443,433.237 17,493.5C 20.4282,487.016 24.4282,480.683 29,474.5C 84.5044,400.043 143.004,327.876 204.5,258C 185.762,240.273 166.596,222.773 147,205.5C 146.523,192.737 145.523,180.07 144,167.5C 127.625,190.124 119.125,215.457 118.5,243.5C 112.242,243.81 106.076,243.476 100,242.5C 100.28,210.324 110.114,181.491 129.5,156C 99.7672,135.936 75.9338,110.436 58,79.5C 46.6724,86.2353 35.5058,86.0686 24.5,79C 18.004,71.1766 16.1706,62.3433 19,52.5C 25.9173,34.08 38.7506,22.08 57.5,16.5 Z"/></g>
</svg>
